X:1
T:9 Lieder und Gesänge, Op.32
T:So stehn wir, ich und meine Weide
T:8. So stehn wir, ich und meine Weide
T:Johannes Brahms
T:Nach Hafis von Daumer
T:9 Lieder und Gesänge, Op.32
T:Creative Commons copyright waiver (CC0 1.0 Universal) 
T:Creative Commons copyright waiver (CC0 1.0 Universal) 
C:Johannes Brahms
Z:Nach Hafis von Daumer
Z:Creative Commons copyright waiver (CC0 1.0 Universal)
Z:
L:1/8
M:2/2
K:Ab
V:1 treble nm="Voice" snm="Vo."
V:1
 z4 c4 | A4 F4 | d2 c2 B2 F2 | A4 G2 z2 | e4 d2 c2 | B2 A2 G2 A2 | B8 | E4 z4 | B4 c2 d2 | %9
w: So|stehn wir,|ich und mei- ne|Wei- de,|so lei- der|mit ein- an- der|bei-|de:|Nie kann ich|
 e2 c2 A2 e2 | e4 =d2 z2 | F4 G2 A2 | B2 =B2 c2 =d2 | f4 e4- | e4 =d4 | c4 z4 | G4 A2 B2 | %17
w: ihr was tun zu|Lie- be,|nie kann sie|mir was tun zu|Lei- *||de.|Sie kränk- et|
 c2 c2 =B2 c2 | e2 d2 _B2 A2 | G2 =B2 =d2 =e2 | f6 =d2 | c4 =B2 z2 | G4 =A2 _B2 | c2 =B2 c2 ^c2 | %24
w: es, wenn ich die|Sti- rn ihr mit|ei- nem Di- a-|dem be-|klei- de;|Ich dan- ke|selbt, wie für ein|
 =e2 =d2 _B2 =A2 | G4 (3G2 _A2 B2 | c6 A2 | A4 G2 z2 | z4 c4 | A4 F4 | d2 c2 B2 F2 | A4 G2 z2 | %32
w: Lä- * cheln der|Huld, für ih- re|Zorn- be-|schei- de.|So|stehn wir,|ich und mei- ne|Wei- de,|
 e4 d2 c2 | B6 =B2 | c6 e2 | e4 =A2 d2 | c2 B2 z4 | B6 =B2 | =B6 c2 | c8 | A4 z4 |] %41
w: so lei- der|mit ein-|an- der|bei- de, so|lei- der|mit ein-|an- der|bei-|de.|

